X: 27
T:Maid of GlenConnel
% Nottingham Music Database
S:FTB1/28
M:3/4
L:1/4
K:D
d/2e/2|"D"f3/2e/2d|"G"dBA|"D"AFA|"F#m"AFd/2e/2|"D"f3/2e/2d|"D"daf|"E7"fee|
"A7"e2d/2e/2|"D"f3/2e/2d|"G"dBA|"D"AFA|"F#m"AFA|"D"daf|"A7"e3/2d/2e|\
"D"f/2e/2d"G"d|
"D"d2A/2G/2|"D"FAd|"D"dfd|"A7"Ace|"A7"egA/2G/2|"D"FAd|"D"daf|"E7"fee|
"A7"e2f/2g/2|"D"afd|"D"dfd|"A7"ecA|"A7"A3/2B/2G|"D"FAd|"A7"ede|"D"f/2e/2dd|\
"D"d2||


